package/converter/svg/regular/stop.svg

<svg xmlns="http://www.w3.org/2000/svg" viewBox="0 0 384 512"><!-- Font Awesome Pro 6.0.0-alpha2 by @fontawesome - https://fontawesome.com License - https://fontawesome.com/license (Commercial License) --><path d="M320 64H64C28.654 64 0 92.652 0 128V384C0 419.346 28.654 448 64 448H320C355.346 448 384 419.346 384 384V128C384 92.652 355.346 64 320 64ZM336 384C336 392.822 328.822 400 320 400H64C55.178 400 48 392.822 48 384V128C48 119.178 55.178 112 64 112H320C328.822 112 336 119.178 336 128V384Z"/></svg>

<svg xmlns="http://www.w3.org/2000/svg" viewBox="0 0 384 512"><!--! Font Awesome Pro 6.6.0 by @fontawesome - https://fontawesome.com License - https://fontawesome.com/license (Commercial License) Copyright 2024 Fonticons, Inc. --><path d="M320 112c8.8 0 16 7.2 16 16l0 256c0 8.8-7.2 16-16 16L64 400c-8.8 0-16-7.2-16-16l0-256c0-8.8 7.2-16 16-16l256 0zM64 64C28.7 64 0 92.7 0 128L0 384c0 35.3 28.7 64 64 64l256 0c35.3 0 64-28.7 64-64l0-256c0-35.3-28.7-64-64-64L64 64z"/></svg>
